src/assets/icons/cloud-upload.svg

<svg width="14" height="14" viewBox="0 0 14 14" fill="none" xmlns="http://www.w3.org/2000/svg">
<g id="cloud-upload">
<g id="Vector">
<path d="M11.1622 11.7294C10.8489 11.7294 10.5946 11.4751 10.5946 11.1618C10.5946 10.8485 10.8489 10.5942 11.1622 10.5942C12.4191 10.5942 12.8649 9.96385 12.8649 8.18623C12.8649 6.99056 11.6011 5.72677 10.4054 5.72677C10.1625 5.72677 9.90746 5.77294 9.62746 5.86753C9.48368 5.91596 9.32476 5.90537 9.18778 5.83499C9.05157 5.76537 8.94941 5.64353 8.904 5.49748C8.38638 3.82429 6.86076 2.7005 5.10811 2.7005C2.9173 2.7005 1.13514 4.48267 1.13514 6.67348C1.13514 9.27521 1.708 10.595 2.83784 10.595C3.15114 10.595 3.40541 10.8493 3.40541 11.1626C3.40541 11.4759 3.15114 11.7301 2.83784 11.7301C0.955028 11.7301 0 10.0289 0 6.67348C0 3.85683 2.29146 1.56537 5.10811 1.56537C7.17784 1.56537 9.00086 2.7845 9.8 4.65066C10.0051 4.61207 10.2064 4.59239 10.4054 4.59239C12.2194 4.59239 14 6.37304 14 8.18699C14 9.15564 14 11.7294 11.1622 11.7294Z" fill="black"/>
<path d="M9.14086 9.75956C8.99556 9.75956 8.85026 9.70432 8.73978 9.59307L7.56757 8.42087V11.8671C7.56757 12.1804 7.3133 12.4347 7 12.4347C6.6867 12.4347 6.43243 12.1804 6.43243 11.8671V8.42237L5.26172 9.59307C5.03999 9.8148 4.68053 9.8148 4.4588 9.59307C4.23707 9.37135 4.23707 9.01189 4.4588 8.79016L6.58647 6.66248C6.61804 6.62891 6.65364 6.59918 6.6925 6.57407C6.91251 6.43131 7.20968 6.45638 7.40259 6.64929L9.54345 8.79016C9.76518 9.01189 9.76518 9.37135 9.54345 9.59307C9.4307 9.70356 9.2854 9.75956 9.14086 9.75956Z" fill="black"/>
</g>
</g>
</svg>

<svg xmlns="http://www.w3.org/2000/svg" fill="none" viewBox="0 0 14 14"><g fill="#000"><path d="M11.162 11.73a.568.568 0 0 1 0-1.136c1.257 0 1.703-.63 1.703-2.408 0-1.195-1.264-2.46-2.46-2.46a2.4 2.4 0 0 0-.778.142.567.567 0 0 1-.723-.37A3.95 3.95 0 0 0 5.108 2.7a3.977 3.977 0 0 0-3.973 3.973c0 2.602.573 3.922 1.703 3.922a.568.568 0 0 1 0 1.135C.955 11.73 0 10.03 0 6.673a5.114 5.114 0 0 1 5.108-5.108A5.08 5.08 0 0 1 9.8 4.651q.307-.059.605-.059C12.22 4.592 14 6.373 14 8.187c0 .969 0 3.542-2.838 3.542"/><path d="M9.14 9.76a.56.56 0 0 1-.4-.167L7.568 8.421v3.446a.568.568 0 0 1-1.136 0V8.422l-1.17 1.171a.568.568 0 1 1-.803-.803l2.127-2.128a.57.57 0 0 1 .817-.013l2.14 2.141a.568.568 0 0 1-.402.97"/></g></svg>
